X: 97
T:Merch y Tafarnwr yn enwi'i Chariadon
T:The Innkeeper's Daughter naming her Lovers
M:6/8
L:1/8
Q:130
S:Cadw Twmpath Collection
R:Jig
A:Wales
Z:brian_martin12345@yahoo.com
K:D
A|d2d cde|f2e gec|d2d GFG|ABc"    Fine"d2:||!
A|dfa agf|gba gfe|fef def|gaf"D.C." e2||
